packages/astro-components-stencil/src/icons/pan-tool.svg

<svg xmlns="http://www.w3.org/2000/svg" viewBox="0 0 24 24"><g xmlns="http://www.w3.org/2000/svg" id="pan-tool" fill-rule="nonzero">
            <path d="M21.5 4c-.83 0-1.5.67-1.5 1.5v5c0 .28-.22.5-.5.5s-.5-.22-.5-.5v-8c0-.83-.67-1.5-1.5-1.5S16 1.67 16 2.5v8c0 .28-.22.5-.5.5s-.5-.22-.5-.5v-9c0-.83-.67-1.5-1.5-1.5S12 .67 12 1.5v8.99c0 .28-.22.5-.5.5s-.5-.22-.5-.5V4.5c0-.83-.67-1.5-1.5-1.5S8 3.67 8 4.5v11.41l-4.12-2.35c-.58-.33-1.3-.24-1.78.22-.6.58-.62 1.54-.03 2.13l6.78 6.89c.75.77 1.77 1.2 2.85 1.2H19c2.21 0 4-1.79 4-4V5.5c0-.83-.67-1.5-1.5-1.5z"/>
        </g></svg>

<svg width="24" height="24" viewBox="0 0 24 24" fill="none" xmlns="http://www.w3.org/2000/svg">
<path d="M21.5 4C20.67 4 20 4.67 20 5.5V10.5C20 10.78 19.78 11 19.5 11C19.22 11 19 10.78 19 10.5V2.5C19 1.67 18.33 1 17.5 1C16.67 1 16 1.67 16 2.5V10.5C16 10.78 15.78 11 15.5 11C15.22 11 15 10.78 15 10.5V1.5C15 0.67 14.33 0 13.5 0C12.67 0 12 0.67 12 1.5V10.49C12 10.77 11.78 10.99 11.5 10.99C11.22 10.99 11 10.77 11 10.49V4.5C11 3.67 10.33 3 9.5 3C8.67 3 8 3.67 8 4.5V15.91L3.88 13.56C3.3 13.23 2.58 13.32 2.1 13.78C1.5 14.36 1.48 15.32 2.07 15.91L8.85 22.8C9.6 23.57 10.62 24 11.7 24H19C21.21 24 23 22.21 23 20V5.5C23 4.67 22.33 4 21.5 4Z" fill="black"/>
</svg>
